X: 1
T: Corner House, The
S: Billy Moran
Z: Jack Gilder
M: 4/4
L: 1/8
R: reel
K: Ador
EAAG ABcd | e2dB cBAG | EGGF G2AB |
cABG AGED |EAAG ABcd | ea2g efge |
d2Bd efge |1 dBGB A2AG :|2 dBGB A2B/c/d ||
eaag a2ga | bgab gedB | d2Bd edB/c/d |
g2 fg edB/c/d |eaag a2ga | bgab gedB |
d2B/c/d efge |1 dBGB A2B/c/d :|2 dBGB A2AG ||
